X:32
T:Wren's Nest, The
R:jig
C:Frankie Gavin
D:De Dannan: Anthem.
Z:id:hn-jig-32
M:6/8
K:Edor
GAB ded|cAA A2c|BGE EFG|AFD AFD|GAB ded|cAA A2c|BGE AFD|1 GEE E2F:|2 GEE E2D||
|:E2e d2B|cBA B2A|GAB ~d3|cAA BAG|E2e d2B|cBA B2A|GAB cAB|GEE FED:|
|:B,EE GED|B,EE E2D|B,EE GAB|AFD AFD|B,EE GED|B,EE E2F|GAB cAB|1 GEE FED:|2 GEE E2F||

